icons/evolvere-blue-folders-flat-vivid-dark-fallback/apps/64/kde.svg

<?xml version="1.0" encoding="UTF-8" standalone="no"?>
<!-- Created with Inkscape (http://www.inkscape.org/) -->

<svg
   xmlns:dc="http://purl.org/dc/elements/1.1/"
   xmlns:cc="http://creativecommons.org/ns#"
   xmlns:rdf="http://www.w3.org/1999/02/22-rdf-syntax-ns#"
   xmlns:svg="http://www.w3.org/2000/svg"
   xmlns="http://www.w3.org/2000/svg"
   xmlns:sodipodi="http://sodipodi.sourceforge.net/DTD/sodipodi-0.dtd"
   xmlns:inkscape="http://www.inkscape.org/namespaces/inkscape"
   width="64"
   height="64"
   id="svg13094"
   version="1.1"
   inkscape:version="0.91+devel r"
   sodipodi:docname="kde.svg">
  <sodipodi:namedview
     id="base"
     pagecolor="#ffffff"
     bordercolor="#666666"
     borderopacity="1.0"
     inkscape:pageopacity="0"
     inkscape:pageshadow="2"
     inkscape:zoom="11.313709"
     inkscape:cx="2.0551281"
     inkscape:cy="31.993176"
     inkscape:document-units="px"
     inkscape:current-layer="svg13094"
     showgrid="false"
     inkscape:snap-bbox="true"
     inkscape:bbox-paths="true"
     inkscape:bbox-nodes="true"
     inkscape:snap-bbox-edge-midpoints="true"
     inkscape:snap-bbox-midpoints="true"
     inkscape:object-paths="true"
     inkscape:snap-intersection-paths="true"
     inkscape:object-nodes="true"
     inkscape:snap-smooth-nodes="true"
     inkscape:snap-midpoints="true"
     inkscape:snap-object-midpoints="true"
     inkscape:snap-center="true"
     showguides="true"
     inkscape:guide-bbox="true"
     inkscape:window-width="1920"
     inkscape:window-height="1023"
     inkscape:window-x="-10"
     inkscape:window-y="35"
     inkscape:window-maximized="1"
     inkscape:snap-global="false"
     fit-margin-top="0"
     fit-margin-left="0"
     fit-margin-right="0"
     fit-margin-bottom="0"
     showborder="true"
     inkscape:showpageshadow="false"
     inkscape:snap-page="true">
    <inkscape:grid
       type="xygrid"
       id="grid3075"
       empspacing="5"
       visible="true"
       enabled="true"
       snapvisiblegridlinesonly="true"
       originx="1.6362304e-08px"
       originy="18px" />
  </sodipodi:namedview>
  <defs
     id="defs13096" />
  <metadata
     id="metadata13099">
    <rdf:RDF>
      <cc:Work
         rdf:about="">
        <dc:format>image/svg+xml</dc:format>
        <dc:type
           rdf:resource="http://purl.org/dc/dcmitype/StillImage" />
        <dc:title></dc:title>
      </cc:Work>
    </rdf:RDF>
  </metadata>
  <path
     inkscape:connector-curvature="0"
     style="color:#000000;fill:#1280e9;fill-opacity:1;fill-rule:nonzero;stroke:none;stroke-width:2.28571415;marker:none;visibility:visible;display:inline;overflow:visible;enable-background:accumulate"
     d="m 0,4 0,30 0,28 2,2 30,0 30,0 2,-2 L 64,34 64,4 32,4 0,4 z"
     id="path6498" />
  <path
     inkscape:connector-curvature="0"
     style="color:#000000;fill:#4eb6ff;fill-opacity:1;fill-rule:nonzero;stroke:none;stroke-width:2.28571415;marker:none;visibility:visible;display:inline;overflow:visible;enable-background:accumulate"
     d="M 2,0 0,1 0,4 32,4 64,4 64,1 62,0 32,0 2,0 z"
     id="path6502" />
  <path
     inkscape:connector-curvature="0"
     style="fill:#6dc3ff;fill-opacity:1;fill-rule:nonzero"
     d="M 0,3 0,6 2,4 Z"
     id="path4298"
     sodipodi:nodetypes="cccc" />
  <path
     d="M 64,6 62,4 64,3 z"
     id="path3028"
     style="fill:#369df4;fill-opacity:1"
     inkscape:connector-curvature="0" />
  <g
     id="g3043"
     inkscape:export-filename="folder.png"
     inkscape:export-xdpi="90"
     inkscape:export-ydpi="90"
     transform="translate(-0.62500009,0.082283)" />
  <g
     id="scalable"
     transform="matrix(1.0385892,0,0,1.0385892,1214.7222,1878.8121)"
     inkscape:label="#g3701"
     style="fill:#ffffff" />
  <g
     id="g3004">
    <path
       sodipodi:nodetypes="cccccsccccccccccsscccccccccccccccccccccccc"
       inkscape:connector-curvature="0"
       id="path3814"
       d="M 35.0625,14.4375 34.249135,35.230315 28.568334,41.848181 34.5625,47.84375 28.753212,46.974552 C 27.76095,45.386812 27.1875,43.510416 27.1875,41.5 c 0,-4.2021 2.526372,-7.818377 6.125,-9.4375 l 0,-2.6875 -6,-6 C 25.741037,23.956728 18.126099,36.321021 13.75,37.21875 L 19.5,42.875 c 4.940927,2.745377 2.583142,2.412014 0.40625,6.625 1.999875,2.000125 3.999928,4.000072 6,6 0.107305,0.107305 0.27675,0.110801 0.40625,0.03125 l 3.25,-1.96875 5.75,5.71875 c 0.02959,0.15355 0.157469,0.28125 0.3125,0.28125 l 3.625,0 c 0.151701,0 0.27624,-0.10385 0.3125,-0.25 l 1.34375,-5.4375 c 1.114998,-0.30081 2.152082,-0.771174 3.125,-1.34375 l 4.78125,3.125 c 0.1295,0.0851 0.29488,0.07605 0.40625,-0.03125 L 51.75,53.0625 c 0.107294,-0.107304 0.143899,-0.276195 0.0625,-0.40625 L 50.09375,49.8125 49.5,50 c -0.08325,0.0259 -0.168615,-0.03269 -0.21875,-0.09375 0,0 -1.099902,-1.623435 -2.53125,-3.71875 -0.117245,0.229383 -4.672506,-4.919988 -5.75,-5.84375 l 0,-4.875 2.65625,6.65625 6,6 6.78125,-2.15625 -8.875,-12.1875 L 56.5,22.3125 50.40625,16.28125 41.0625,20.4375 z M 31.125,52.59375 c 0.528201,0.304743 -0.301563,0.452753 -1,0.59375 z"
       style="color:#000000;fill:#00305c;fill-opacity:0.13685152;fill-rule:nonzero;stroke:none;stroke-width:1;marker:none;visibility:visible;display:inline;overflow:visible;enable-background:accumulate" />
    <path
       inkscape:connector-curvature="0"
       style="color:#000000;fill:#d7ebf9;fill-opacity:1;fill-rule:nonzero;stroke:none;marker:none;visibility:visible;display:inline;overflow:visible;enable-background:accumulate"
       id="path3845"
       d="m 35.068509,14.445177 -6.500175,0.624747 0,26.778257 6.430801,-0.971807 0,-11.417117 8.653209,12.666425 6.778416,-2.15248 -8.86152,-12.180799 8.93071,-11.486122 -6.916796,-1.583418 -8.583835,11.485937 0.06845,-11.763623 z m -14.736394,6.527555 c -0.07401,0 -0.15355,0.02775 -0.207201,0.08325 l -2.555966,2.555781 c -0.107304,0.107305 -0.12025,0.27232 -0.0407,0.402747 l 2.986093,4.930631 c -0.530397,0.891147 -0.960892,1.847414 -1.263923,2.860847 l -5.486373,1.139047 c -0.15355,0.02959 -0.263995,0.17575 -0.263995,0.333185 l 0,3.611394 c 0,0.153551 0.11655,0.283236 0.263995,0.319311 l 5.319317,1.291673 c 0.284532,1.173643 0.724277,2.296595 1.305919,3.319463 l -3.083587,4.69457 c -0.0851,0.129501 -0.0666,0.305992 0.0407,0.416437 l 2.55578,2.555595 c 0.107305,0.107305 0.273061,0.120251 0.402561,0.0407 l 4.833321,-2.930961 c 0.948498,0.547231 1.974695,0.986052 3.056022,1.277982 l 1.124989,5.416628 c 0.02959,0.15355 0.164649,0.263811 0.31968,0.263811 l 3.611023,0 c 0.151701,0 0.283236,-0.1036 0.319496,-0.24975 l 1.333483,-5.444564 c 1.114998,-0.30081 2.166355,-0.747031 3.139273,-1.319607 l 4.763761,3.125212 c 0.1295,0.0851 0.305435,0.0666 0.416805,-0.0407 l 2.541722,-2.555597 c 0.107294,-0.107304 0.135049,-0.272875 0.05365,-0.40293 l -1.735859,-2.861032 -0.569615,0.1813 c -0.08325,0.0259 -0.172051,-0.02219 -0.222186,-0.08325 0,0 -1.096682,-1.613204 -2.52803,-3.708519 -1.71181,3.349063 -5.202213,5.638999 -9.222458,5.638999 -5.712998,0 -10.347998,-4.634446 -10.347998,-10.347445 0,-4.2021 2.513415,-7.811088 6.112043,-9.430211 l 0,-2.666782 c -0.655086,0.229031 -1.287788,0.505791 -1.889039,0.833241 0,0 0,-0.02219 0,-0.02219 l -4.875505,-3.194221 c -0.0666,-0.04255 -0.13505,-0.04995 -0.207755,-0.0407 z" />
  </g>
</svg>

<svg xmlns="http://www.w3.org/2000/svg" viewBox="0 0 64 64"><g color="#000"><path d="m0 4v30 28l2 2h30 30l2-2v-28-30h-32-32" fill="#1280e9"/><path d="m2 0l-2 1v3h32 32v-3l-2-1h-30-30" fill="#4eb6ff"/></g><path d="m0 3v3l2-2" fill="#6dc3ff"/><path d="m64 6l-2-2 2-1z" fill="#369df4"/><g color="#000"><path d="m35.06 14.438l-.813 20.793-5.681 6.618 5.994 5.996-5.809-.869c-.992-1.588-1.566-3.464-1.566-5.475 0-4.202 2.526-7.818 6.125-9.438v-2.688l-6-6c-1.571.582-9.186 12.946-13.563 13.844l5.75 5.656c4.941 2.745 2.583 2.412.406 6.625 2 2 4 4 6 6 .107.107.277.111.406.031l3.25-1.969 5.75 5.719c.03.154.157.281.313.281h3.625c.152 0 .276-.104.313-.25l1.344-5.438c1.115-.301 2.152-.771 3.125-1.344l4.781 3.125c.13.085.295.076.406-.031l2.531-2.563c.107-.107.144-.276.063-.406l-1.719-2.844-.594.188c-.083.026-.169-.033-.219-.094 0 0-1.1-1.623-2.531-3.719-.117.229-4.673-4.92-5.75-5.844v-4.875l2.656 6.656 6 6 6.781-2.156-8.875-12.188 8.938-11.469-6.094-6.03-9.344 4.156zm-3.938 38.16c.528.305-.302.453-1 .594z" fill="#00305c" fill-opacity=".137"/><path d="m35.07 14.445l-6.5.625v26.778l6.431-.972v-11.417l8.653 12.666 6.778-2.152-8.862-12.181 8.931-11.486-6.917-1.583-8.584 11.486.068-11.764m-14.736 6.528c-.074 0-.154.028-.207.083l-2.556 2.556c-.107.107-.12.272-.041.403l2.986 4.931c-.53.891-.961 1.847-1.264 2.861l-5.486 1.139c-.154.03-.264.176-.264.333v3.611c0 .154.117.283.264.319l5.319 1.292c.285 1.174.724 2.297 1.306 3.319l-3.084 4.695c-.085.13-.067.306.041.416l2.556 2.556c.107.107.273.12.403.041l4.833-2.931c.948.547 1.975.986 3.056 1.278l1.125 5.417c.03.154.165.264.32.264h3.611c.152 0 .283-.104.319-.25l1.333-5.445c1.115-.301 2.166-.747 3.139-1.32l4.764 3.125c.13.085.305.067.417-.041l2.542-2.556c.107-.107.135-.273.054-.403l-1.736-2.861-.57.181c-.083.026-.172-.022-.222-.083 0 0-1.097-1.613-2.528-3.709-1.712 3.349-5.202 5.639-9.222 5.639-5.713 0-10.348-4.634-10.348-10.347 0-4.202 2.513-7.811 6.112-9.43v-2.667c-.655.229-1.288.506-1.889.833 0 0 0-.022 0-.022l-4.876-3.194c-.067-.043-.135-.05-.208-.041z" fill="#d7ebf9"/></g></svg>
